X:115
T:Well I Know What Kitty Wants
R:slide
S:Buckley Sisters on Youtube
H:See also polka#19
D:Dennis Doody
Z:id:hn-slide-115
M:6/8
L:1/8
K:G
G2F G2A | B2e ege | d2B BAB | d2B B2A |
G3 G2A | B2e ege | d2B ABA |1 G3 G2D :|2 G3 G2f ||
|: g2f e2d | e2f gfe | d2B BAB | d2B B2A |
g2f e2d | e2f gfe | d2B ABA |1 G3 G2f :|2 G3 G2D ||
P:variations
|: G3 G2A | B2g gfe | d2B BAB | d2B ABA |
G3 G2A | B2g gfe | d2B ABA |1 G3 DEF :|2 G3 GBd ||
|: g2f e2d | e2f gfe | d2B BAB | d2B BAB |
g2f e2d | e2f gfe | d2B ABA |1 G3 GBd :|2 G3 DEF ||

